X: 10772
T: 5. SAIL IN, BOYS -- Hornpipe
R: hornpipe
B: K\"ohler's Violin Repository, v.1, 1885 p.77 #2
F: http://www.archive.org/details/klersviolinrepos01edin
Z: 2012 John Chambers <jc:trillian.mit.edu>
N: The note counts for the repeats aren't right.
M: C|
L: 1/8
K: Bb
uF2 !segno!|\
B2 ((3dcB) AcFA | Bdfa bfdB | GBgf e(dcB) | (3cdc (3BAG FGAc |\
BdcB AcFA | Bdfa bfdb | gecA FBAc | B2d2B2 :| uAB |
cf=eg eagb | af ((3gab) (af)ga | (ba)gb (ag)fa | (3gag (3f=ed c2A2 |\
Bdfb Acfa | Gc=eg fcAc | dbag f=ede | f(=efg) (3fgf (3_edc !segno!"_D.C."|]

%%sep 2 1 500

